!!!OTL: Der betruegerische Freier Y a bien longtemps brunette
!!!ARE: Europa, Mitteleuropa, France
!!!YOR: 2, S. 133
!!    1906 gedruckt in Paris
!!!SCT: Q2042F
!!!YEM: Copyright 1995, estate of Helmut Schaffrath.
**kern
*ICvox
*Ivox
!! Mixed meters:  6/8; 3/8
*M3/8
*k[]
*a:
{8e
=1
4a
8ccn
4b
8a
=2
4a
8g#
4e}
{8e
=3
4a
8ccn
4ee
8dd
=4
8ccn
8b}
{8g#
=5
*M6/8
4a
8ccn
4b
8a
=6
4a
8g#
4e}
{8e
=7
4a
8ccn
4ee
8dd
=8
*M3/8
8ccn
4b}
=9
*M6/8
{8ccn
8dd
8b
4g#
8b
=10
[4.a
8a]
8r}
==
!!!AGN: Ballade, Braut - Werbung, Betrug
!! Franzoesische Fassung der Ballade.
!!!ONB: ESAC (Essen Associative Code) Database: BALLADE
!!!AMT: irregular
!!!AIN: vox
!!!EED: Helmut Schaffrath
!!!EEV: 1.0
*-
